images/grey-ticket.svg

<?xml version="1.0" encoding="UTF-8" standalone="no"?>
<svg width="300px" height="160px" viewBox="0 0 300 160" version="1.1" xmlns="http://www.w3.org/2000/svg" xmlns:xlink="http://www.w3.org/1999/xlink" xmlns:sketch="http://www.bohemiancoding.com/sketch/ns">
    <!-- Generator: Sketch 3.0.2 (7799) - http://www.bohemiancoding.com/sketch -->
    <title>grey-ticket</title>
    <description>Created with Sketch.</description>
    <defs>
        <rect id="path-1" x="1" y="147" width="298" height="6"></rect>
        <rect id="path-2" x="1" y="7" width="298" height="6"></rect>
    </defs>
    <g id="Page-1" stroke="none" stroke-width="1" fill="none" fill-rule="evenodd" sketch:type="MSPage">
        <g id="Artboard-1" sketch:type="MSArtboardGroup" transform="translate(-750.000000, -4958.000000)">
            <g id="grey-ticket" sketch:type="MSLayerGroup" transform="translate(750.000000, 4958.000000)">
                <path d="M0,0 L0,53.78125 L20,80 L0,107.03125 L0,160 L300,160 L300,107.03125 L280,80 L300,53.78125 L300,0 L0,0 Z" id="Rectangle-1366" fill="#EAEAEA" sketch:type="MSShapeGroup"></path>
                <g id="Rectangle-1385">
                    <use stroke="#E1E1E1" stroke-width="1" stroke-dasharray="2" fill="#FFFFFF" fill-rule="evenodd" sketch:type="MSShapeGroup" xlink:href="#path-1"></use>
                    <use stroke="none" fill="none" xlink:href="#path-1"></use>
                </g>
                <g id="Rectangle-1386">
                    <use stroke="#E1E1E1" stroke-width="1" stroke-dasharray="2" fill="#FFFFFF" fill-rule="evenodd" sketch:type="MSShapeGroup" xlink:href="#path-2"></use>
                    <use stroke="none" fill="none" xlink:href="#path-2"></use>
                </g>
            </g>
        </g>
    </g>
</svg>

<svg width="300" height="160" viewBox="0 0 300 160" xmlns="http://www.w3.org/2000/svg" xmlns:xlink="http://www.w3.org/1999/xlink" xmlns:sketch="http://www.bohemiancoding.com/sketch/ns"><title>grey-ticket</title><defs><path id="a" d="M1 147h298v6h-298z"/><path id="b" d="M1 7h298v6h-298z"/></defs><g sketch:type="MSLayerGroup" fill="none"><path d="M0 0v53.781l20 26.219-20 27.031v52.969h300v-52.969l-20-27.031 20-26.219v-53.781h-300z" fill="#EAEAEA" sketch:type="MSShapeGroup"/><g transform="translate(-750 -4958) translate(750 4958)"><use stroke="#E1E1E1" stroke-dasharray="2" fill="#fff" sketch:type="MSShapeGroup" xlink:href="#a"/><use xlink:href="#a"/></g><g transform="translate(-750 -4958) translate(750 4958)"><use stroke="#E1E1E1" stroke-dasharray="2" fill="#fff" sketch:type="MSShapeGroup" xlink:href="#b"/><use xlink:href="#b"/></g></g></svg>
